X:1
T:Etude Op 25 No 12
T:ÉTUDE
T:Op. 25 - Nr 12
C:Chopin
%%score { ( 1 3 ) | 2 }
L:1/8
Q:1/2=80
M:4/4
K:Eb
V:1 treble nm="24"
V:3 treble 
V:2 bass 
V:1
"^Molto allegro, con fuoco ( )"!f![I:staff +1] E,/G,/[I:staff -1]E/E/ G/e/e/g/ e'/g/e/e/ G/E/E/[I:staff +1]G,/ | %1
 D,/A,/[I:staff -1]D/D/ A/d/d/a/ d'/a/d/d/ A/D/D/[I:staff +1]A,/ | %2
 F,/[I:staff -1]C/F/F/ c/f/f/c'/ f'/c'/f/f/ c/F/F/C/ | %3
[I:staff +1] E,/G,/[I:staff -1]E/E/ G/e/e/g/ e'/g/e/e/ G/E/E/[I:staff +1]G,/ | %4
 D,/A,/[I:staff -1]D/D/ A/d/d/a/ d'/a/d/d/ A/D/D/[I:staff +1]A,/ | %5
 E,/A,/[I:staff -1]E/E/ A/e/e/a/ e'/a/e/e/ A/E/E/[I:staff +1]A,/ | %6
 C,/E,/[I:staff -1]C/C/!>(! E/c/E/C/ E/_B/E/C/ E/A/E/C/ x9/2 | %7
 D/G/D/=B,/ _D/G/D/_B,/ C/F/C/=A,/ =B,/F/B,/_A,/!>)! | %8
[I:staff +1] E,/G,/[I:staff -1]E/E/ G/e/e/g/ e'/g/e/e/ G/E/E/[I:staff +1]G,/ | %9
 D,/A,/[I:staff -1]D/D/ A/d/d/a/ d'/a/d/d/ A/D/D/[I:staff +1]A,/ | %10
 F,/[I:staff -1]C/F/F/ c/f/f/c'/ f'/c'/f/f/ c/F/F/[I:staff +1]C/ | %11
 =E,/C/[I:staff -1]=E/E/ c/=e/e/c'/ =e'/c'/e/e/ c/E/E/[I:staff +1]C/ | %12
 A,/[I:staff -1]_D/A/A/ _d/a/a/_d'/ !>!a'/d'/a/a/ d/A/A/D/ | %13
[I:staff +1] G,/=B,/[I:staff -1]G/G/ =B/g/g/=b/ !>!g'/b/g/g/ B/G/G/[I:staff +1]B,/ | %14
 =E,/G,/[I:staff -1]=E/E/ G/=e/e/g/!8va(! =e'/e'/g'/=e''/ g'/e'/e'/g/!8va)! | %15
 =e/e/G/=E/ !>!E/[I:staff +1]G,/=E,/G,/ !>!D,/G,/[I:staff -1]D/[I:staff +1]G,/ !>!F,/G,/[I:staff -1]G/[I:staff +1]G,/ | %16
 =E,/G,/[I:staff -1]=E/E/ G/=e/e/g/!8va(! =e'/e'/g'/=e''/ g'/e'/e'/g/!8va)! | %17
 =e/e/G/=E/ !>!E/[I:staff +1]G,/=E,/G,/ !>!D,/G,/D/G,/ !>!C,/G,/C/G,/ | %18
 D,/G,/[I:staff -1]D/D/ G/d/d/g/!8va(! d'/d'/g'/d''/ g'/d'/d'/g/!8va)! | %19
 d/d/G/D/ !>!D/[I:staff +1]G,/D,/G,/ !>!C,/F,/C/F,/ !>!C,/F,/=A,/F,/ | %20
 C,/F,/C/C/[I:staff -1] F/c/c/f/ c'/f/c/c/ F/C/C/[I:staff +1]F,/ | %21
 C,/=E,/C/C/[I:staff -1] =E/c/c/=e/ c'/e/c/c/ E/C/C/[I:staff +1]E,/ | %22
!f! C,/_E,/[I:staff -1]C/C/ _E/c/c/e/!8va(! c'/c'/e'/c''/ e'/c'/c'/e/!8va)! | %23
 c/c/E/C/ !>!C/[I:staff +1]E,/C,/E,/ !>!B,,/E,/B,/E,/ !>!_D,/E,/[I:staff -1]E/[I:staff +1]E,/ | %24
 C,/_E,/C/C/[I:staff -1] _E/c/c/e/!8va(! c'/c'/e'/c''/ e'/c'/c'/e/!8va)! | %25
 c/c/E/C/ !>!C/[I:staff +1]E,/C,/E,/ !>!B,,/E,/B,/E,/ !>!A,,/E,/A,/E,/ | %26
 B,,/E,/[I:staff -1]B,/B,/ E/B/B/e/!8va(! b/b/e'/b'/ e'/b/b/e/!8va)! | %27
 B/B/E/[I:staff +1]B,/ !>!B,/E,/B,,/E,/ !>!A,,/_D,/A,/D,/ !>!A,,/D,/F,/D,/ | %28
 !>!A,,/_D,/A,/A,/[I:staff -1] _D/A/A/_d/ a/d/A/A/ D/[I:staff +1]A,/A,/D,/ | %29
 !>!A,,/C,/A,/A,/[I:staff -1] C/A/C/[I:staff +1]A,/ !>!^F,,/C,/^F,/F,/[I:staff -1] C/^F/C/[I:staff +1]F,/ | %30
 !>!G,,/"_cresc."=B,,/G,/G,/ =B,/[I:staff -1]G/G/=B/ g/B/G/G/ B,/[I:staff +1]G,/G,/B,,/ | %31
 !>!A,,/C,/A,/A,/[I:staff -1] C/A/A/c/ a/c/A/A/ C/[I:staff +1]A,/A,/C,/ | %32
 C,/F,/[I:staff -1]C/C/ F/c/c/f/ c'/f/c/c/ F/C/C/[I:staff +1]F,/ | %33
 =B,,/F,/[I:staff -1]=B,/B,/ F/=B/B/f/ =b/f/B/B/ F/B,/B,/[I:staff +1]F,/ | %34
 =B,,/F,/[I:staff -1]=B,/B,/ F/=B/B/f/ =b/f/B/B/ F/B,/B,/[I:staff +1]F,/ | %35
 C,/F,/[I:staff -1]C/C/ F/c/c/f/ c'/f/c/c/ F/C/C/[I:staff +1]F,/ | %36
 E,/^F,/[I:staff -1]E/E/ ^F/e/e/^f/ e'/f/e/e/ F/E/E/[I:staff +1]F,/ | %37
 D,/G,/[I:staff -1]D/D/ G/d/d/g/ d'/g/d/d/ G/D/D/[I:staff +1]G,/ | %38
 D,/A,/[I:staff -1]D/D/ _A/d/d/_a/ d'/a/d/d/ A/D/D/[I:staff +1]A,/ | %39
 E,/A,/[I:staff -1]E/E/ A/e/e/a/ e'/a/e/e/ A/E/E/[I:staff +1]A,/ | %40
 G,/C/[I:staff -1]G/G/ c/g/g/c'/ !>!g'/c'/g/g/ c/G/G/[I:staff +1]C/ | %41
 F,/C/[I:staff -1]F/F/ c/f/f/c'/ !>!f'/=b/f/f/ =B/F/F/[I:staff +1]=B,/ | %42
 A,/=B,/[I:staff -1]A/A/ =B/a/a/=b/ !>!a'/b/a/a/ B/A/A/[I:staff +1]B,/ | %43
 G,/=B,/[I:staff -1]G/G/ =B/g/g/=b/ !>!g'/b/g/g/ B/G/G/[I:staff +1]B,/ | %44
 !>!G,,/=B,,/G,/G,/ =B,/[I:staff -1]G/[I:staff +1]B,/G,/ !>!G,,/C,/G,/G,/[I:staff -1] C/G/C/[I:staff +1]G,/ | %45
 !>!G,,/!<(!^C,/G,/G,/[I:staff -1] ^C/G/C/[I:staff +1]G,/ !>!G,,/C,/G,/C,/ !>!G,,/D,/G,/D,/!<)! | %46
 E,/G,/[I:staff -1]E/E/ G/e/e/g/ e'/g/e/e/ G/E/E/[I:staff +1]G,/ | %47
 D,/A,/[I:staff -1]D/D/ A/d/d/a/ d'/a/d/d/ A/D/D/[I:staff +1]A,/ | %48
 F,/C/[I:staff -1]F/F/ c/f/f/c'/ f'/c'/f/f/ c/F/F/[I:staff +1]C/ | %49
 E,/G,/[I:staff -1]E/E/ G/e/e/g/ e'/g/e/e/ G/E/E/[I:staff +1]G,/ | %50
 D,/A,/[I:staff -1]D/D/ A/d/d/a/ d'/a/d/d/ A/D/D/[I:staff +1]A,/ | %51
 E,/A,/[I:staff -1]E/E/ A/e/e/a/ e'/a/e/e/ A/E/E/[I:staff +1]A,/ | %52
 C,/E,/C/C/[I:staff -1] E/!>(!c/E/C/ E/_B/E/C/ E/A/E/C/ x9/2 | %53
 D/G/D/=B,/ _D/G/D/_B,/ C/F/C/[I:staff +1]=A,/[I:staff -1] =B,/F/B,/!>)![I:staff +1]_A,/ x/ | %54
 E,/G,/[I:staff -1]E/E/ G/e/e/g/ e'/g/e/e/ G/E/E/[I:staff +1]G,/ | %55
 D,/A,/[I:staff -1]D/D/ A/d/d/a/ d'/a/d/d/ A/D/D/[I:staff +1]A,/ | %56
 =E,/B,/[I:staff -1]=E/"_cresc."E/ B/=e/e/b/ =e'/b/e/e/ B/E/E/[I:staff +1]B,/- | %57
 [F,B,]/A,/[I:staff -1]F/F/ A/f/f/a/ !>!f'/a/f/f/ A/F/F/[I:staff +1]A,/ | %58
 F,/A,/[I:staff -1]F/F/ A/f/f/a/ !>!f'/a/f/f/ A/F/F/[I:staff +1]A,/ | %59
 =E,/B,/[I:staff -1]=E/E/ B/=e/e/b/ !>!=e'/b/e/e/ B/E/E/[I:staff +1]B,/ | %60
 F,/=B,/[I:staff -1]F/F/ =B/f/f/=b/ !>!f'/b/f/f/ B/F/F/[I:staff +1]B,/ | %61
 G,/=B,/[I:staff -1]G/G/ =B/g/B/G/[I:staff +1] A,/B,/[I:staff -1]A/A/ B/a/B/A/ | %62
[I:staff +1] G,/C/[I:staff -1]G/G/ c/g/g/c'/ !>!g'/c'/g/g/ c/G/G/C/ | %63
 !>!C/G/c/c/!8va(! g/c'/c'/g'/ !>!c''/g'/c'/c'/!8va)! g/c/c/G/ | %64
[I:staff +1] !>!_B,/[I:staff -1]C/_B/B/ c/_b/c/B/[I:staff +1] !>!A,/[I:staff -1]C/A/A/ c/a/c/A/ | %65
[I:staff +1] !>!F,/A,/[I:staff -1]F/F/ A/f/A/F/[I:staff +1] !>!D,/A,/[I:staff -1]D/D/ A/d/A/D/ | %66
"_cresc."[I:staff +1] G,/C/[I:staff -1]G/G/ c/g/g/c'/ !>!g'/c'/g/g/ c/G/G/[I:staff +1]C/ | %67
 A,/[I:staff -1]C/A/A/ c/a/a/c'/ !>!a'/c'/a/a/ c/A/A/[I:staff +1]C/ | %68
 A,/=B,/[I:staff -1]A/A/ =B/a/a/=b/ !>!a'/b/a/a/ B/A/A/[I:staff +1]B,/ | %69
 G,/=B,/[I:staff -1]G/G/ =B/g/g/=b/ !>!g'/b/g/g/ B/G/G/[I:staff +1]B,/ | %70
 =E,/G,/!fff![I:staff -1]=E/E/ G/=e/e/g/!8va(! =e'/e'/g'/=e''/ g'/e'/e'/g/!8va)! | %71
 =e/e/G/=E/ !>!E/[I:staff +1]G,/=E,/G,/ !>!D,/G,/[I:staff -1]D/[I:staff +1]G,/ !>!F,/G,/[I:staff -1]G/[I:staff +1]G,/ | %72
 =E,/G,/[I:staff -1]=E/E/ G/=e/e/g/!8va(! =e'/e'/g'/=e''/ g'/e'/e'/g/!8va)! | %73
 =e/e/G/=E/ !>!E/[I:staff +1]G,/=E,/G,/ !>!D,/G,/D/G,/ !>!C,/G,/C/G,/ | %74
 D,/G,/[I:staff -1]D/D/ G/d/d/g/ d/d/g/d'/ g/d/d/G/ | %75
 d/d/G/D/ !>!D/[I:staff +1]G,/D,/G,/ !>!C,/F,/C/F,/ !>!C,/F,/=A,/F,/ | %76
 C,/F,/[I:staff -1]C/C/ E/c/c/f/!8va(! c'/c'/f'/c''/ f'/c'/c'/f/!8va)! | %77
 c/c/F/C/ !>!C/[I:staff +1]F,/C,/F,/ !>!C,/F,/C/F,/ !>!C,/F,/D/F,/ | %78
 C,/F,/[I:staff -1]C/C/ F/c/c/f/!8va(! c'/c'/f'/c''/ f'/c'/c'/f/!8va)! | %79
 c/c/F/C/ !>!C/[I:staff +1]F,/C,/F,/ !>!C,/F,/C/F,/ !>!C,/F,/D/F,/ | %80
 =E,/!<(!G,/[I:staff -1]=E/[I:staff +1]G,/ E,/G,/[I:staff -1]E/[I:staff +1]G,/ E,/G,/[I:staff -1]E/[I:staff +1]G,/ E,/G,/[I:staff -1]E/[I:staff +1]G,/!<)! | %81
!fff! =E,/G,/[I:staff -1]=E/[I:staff +1]G,/ E,/G,/[I:staff -1]E/[I:staff +1]G,/ E,/G,/[I:staff -1]E/[I:staff +1]G,/ E,/G,/[I:staff -1]E/[I:staff +1]G,/ | %82
 =E,2[I:staff -1] z2 !fermata![=EGc=e]4 |] %83
V:2
!ped! !>!C,,/G,,/C,/C,/ G,/C/C/[I:staff -1]G/ !>!c/G/[I:staff +1]C/C/ G,/C,/C,/G,,/!ped-up! | %1
!ped! !>!C,,/F,,/C,/C,/ F,/C/C/[I:staff -1]F/ !>!c/F/[I:staff +1]C/C/ F,/C,/C,/F,,/!ped-up! | %2
!ped! !>!C,,/A,,/C,/C,/ A,/C/C/[I:staff -1]A/ !>!c/A/[I:staff +1]C/C/ G,/C,/C,/A,,/!ped-up! | %3
!ped! !>!C,,/G,,/C,/C,/ G,/C/C/[I:staff -1]G/ !>!c/G/[I:staff +1]C/C/ G,/C,/C,/G,,/!ped-up! | %4
!ped! !>!C,,/F,,/C,/C,/ F,/C/C/[I:staff -1]F/ !>!c/F/[I:staff +1]C/C/ F,/C,/C,/F,,/!ped-up! | %5
!ped! !>!C,,/F,,/=B,,/C,/ F,/=B,/C/[I:staff -1]F/ !>!=B/F/[I:staff +1]C/B,/ F,/C,/B,,/F,,/!ped-up! | %6
!ped! !>!C,,/G,,/C,/C,/ G,/C/G,/!ped-up!C,/!ped! G,/C/G,/C,/!ped-up!!ped! G,/C/G,/C,/!ped-up! x9/2 | %7
!ped! G,/=B,/G,/C,/!ped-up!!ped! G,/_B,/G,/C,/!ped-up!!ped! F,/=A,/F,/C,/!ped-up!!ped! F,/_A,/F,/C,/!ped-up! | %8
!ped! !>!C,,/G,,/C,/C,/ G,/C/C/[I:staff -1]G/ !>!c/G/[I:staff +1]C/C/ G,/C,/C,/G,,/!ped-up! | %9
!ped! !>!C,,/F,,/C,/C,/ F,/C/C/[I:staff -1]F/ !>!c/F/[I:staff +1]C/C/ F,/C,/C,/F,,/!ped-up! | %10
!ped! !>!C,,/A,,/C,/C,/ A,/C/C/[I:staff -1]A/ !>!c/A/[I:staff +1]C/C/ A,/C,/C,/A,,/!ped-up! | %11
!ped! !>!C,,/G,,/C,/C,/ G,/C/C/[I:staff -1]G/ !>!c/G/[I:staff +1]C/C/ G,/C,/C,/G,,/!ped-up! | %12
!ped! !>!F,,/_D,/F,/F,/ _D/[I:staff -1]F/F/_d/ !>!f/d/F/F/[I:staff +1] D/F,/F,/D,/!ped-up! | %13
!ped! !>!G,,/=D,/F,/G,/ =D/[I:staff -1]F/G/=d/ !>!f/d/G/F/[I:staff +1] D/G,/D,/G,,/!ped-up! | %14
!ped! !>!C,,/G,,/C,/C,/ G,/C/C/[I:staff -1]G/[I:staff +1][K:treble] c/c/g/c'/ g/c/c/G/ | %15
[K:bass] C/C/G,/C,/ !>!C,/G,,/C,,/G,,/!ped-up!!ped! !>!=B,,/G,,/C,,/G,,/!ped-up!!ped! !>!D,/G,,/C,,/G,,/!ped-up! | %16
!ped! !>!C,,/G,,/C,/C,/ G,/C/C/[I:staff -1]G/[I:staff +1][K:treble] c/c/g/c'/ g/c/c/G/ | %17
[K:bass] C/C/G,/C,/ !>!C,/G,,/C,,/G,,/!ped-up!!ped! !>!=B,,/G,,/C,,/G,,/!ped-up!!ped! !>!=A,,/G,,/C,,/G,,/!ped-up! | %18
!ped! !>!C,,/G,,/=B,,/C,/ G,/=B,/C/[I:staff -1]G/[I:staff +1][K:treble] =B/c/g/=b/ g/c/B/G/ | %19
[K:bass] C/=B,/G,/C,/ !>!=B,,/G,,/C,,/G,,/!ped-up!!ped! !>!=A,,/F,,/C,,/F,,/!ped-up!!ped! !>!A,,/F,,/C,,/F,,/!ped-up! | %20
!ped! !>!C,,/_A,,/C,/C,/ _A,/C/C/[I:staff -1]A/ !>!c/A/[I:staff +1]C/C/ A,/C,/C,/A,,/!ped-up! | %21
!ped! !>!C,,/G,,/C,/C,/ G,/C/C/[I:staff -1]G/ !>!c/G/[I:staff +1]C/C/ G,/C,/C,/G,,/!ped-up! | %22
!ped! !>!A,,,/_E,,/A,,/A,,/ _E,/A,/A,/[I:staff -1]E/[I:staff +1][K:treble] A/A/e/a/ e/A/A/E/ | %23
[K:bass] A,/A,/E,/A,,/ !>!A,,/E,,/A,,,/E,,/!ped-up!!ped! !>!G,,/E,,/A,,,/E,,/!ped-up!!ped! !>!B,,/E,,/A,,,/E,,/!ped-up! | %24
!ped! !>!A,,,/_E,,/A,,/A,,/ _E,/A,/A,/E/[K:treble] A/A/e/a/ e/A/A/E/ | %25
[K:bass] A,/A,/E,/A,,/ !>!A,,/E,,/A,,,/E,,/!ped-up!!ped! !>!G,,/E,,/A,,,/E,,/!ped-up!!ped! !>!F,,/E,,/A,,,/E,,/!ped-up! | %26
!ped! !>!A,,,/E,,/G,,/A,,/ E,/G,/A,/E/[K:treble] G/A/e/g/ e/A/G/E/ | %27
[K:bass] A,/G,/E,/A,,/ !>!G,,/E,,/A,,,/E,,/!ped-up!!ped! !>!F,,/_D,,/A,,,/D,,/!ped-up!!ped! !>!F,,/D,,/A,,,/D,,/!ped-up! | %28
!ped! !>!A,,,/_F,,/A,,/A,,/ _F,/A,/A,/[I:staff -1]_F/ !>!A/F/[I:staff +1]A,/A,/ F,/A,,/A,,/F,,/!ped-up! | %29
!ped! !>!A,,,/E,,/A,,/A,,/ E,/A,/E,/A,,/!ped-up!!ped! !>!A,,,/=D,,/A,,/A,,/ =D,/A,/D,/A,,/!ped-up! | %30
!ped! !>!G,,,/D,,/G,,/G,,/ D,/G,/G,/[I:staff -1]D/ !>!G/D/[I:staff +1]G,/G,/ D,/G,,/G,,/D,,/!ped-up! | %31
!ped! !>!G,,,/E,,/G,,/G,,/ E,/G,/G,/[I:staff -1]E/ !>!G/E/[I:staff +1]G,/G,/ E,/G,,/G,,/E,,/!ped-up! | %32
!ped! !>!G,,,/D,,/A,,/A,,/ D,/A,/A,/[I:staff -1]D/ !>!A/D/[I:staff +1]A,/A,/ D,/A,,/A,,/D,,/!ped-up! | %33
!ped! !>!G,,,/D,,/G,,/G,,/ D,/G,/G,/[I:staff -1]D/ !>!G/D/[I:staff +1]G,/G,/ D,/G,,/G,,/D,,/!ped-up! | %34
!ped! !>!G,,,/D,,/G,,/G,,/ D,/G,/G,/[I:staff -1]D/ !>!G/D/[I:staff +1]G,/G,/ D,/G,,/G,,/D,,/!ped-up! | %35
!ped! !>!A,,,/F,,/A,,/A,,/ F,/A,/A,/[I:staff -1]F/ !>!A/F/[I:staff +1]A,/A,/ F,/A,,/A,,/F,,/!ped-up! | %36
!ped! !>!=A,,,/^F,,/=A,,/A,,/ ^F,/=A,/A,/[I:staff -1]^F/ !>!=A/F/[I:staff +1]A,/A,/ F,/A,,/A,,/F,,/!ped-up! | %37
!ped! !>!B,,,/G,,/B,,/B,,/ G,/B,/B,/[I:staff -1]G/ !>!B/G/[I:staff +1]B,/B,/ G,/B,,/B,,/G,,/!ped-up! | %38
!ped! !>!=B,,,/=F,,/=B,,/B,,/ =F,/=B,/B,/[I:staff -1]=F/ !>!=B/F/[I:staff +1]B,/B,/ F,/B,,/B,,/F,,/!ped-up! | %39
!ped! !>!C,,/F,,/C,/C,/ F,/C/C/[I:staff -1]F/ !>!c/F/[I:staff +1]C/C/ F,/C,/C,/F,,/!ped-up! | %40
!ped! !>!E,,/A,,/E,/E,/ A,/[I:staff -1]E/E/A/ e/A/E/E/[I:staff +1] A,/E,/E,/A,,/!ped-up! | %41
!ped! !>!D,,/A,,/D,/D,/ A,/[I:staff -1]D/D/A/!ped-up!!ped! !>!d/A/D/D/[I:staff +1] A,/D,/D,/A,,/!ped-up! | %42
!ped! !>!G,,/D,/F,/G,/[I:staff -1] D/F/G/d/ !>!f/d/G/F/ D/[I:staff +1]G,/F,/D,/!ped-up! | %43
!ped! !>!G,,/D,/F,/G,/[I:staff -1] D/F/G/d/ !>!f/d/G/F/ D/[I:staff +1]G,/F,/D,/!ped-up! | %44
!ped! !>!G,,,/D,,/G,,/G,,/ D,/G,/D,/G,,/!ped-up!!ped! !>!A,,,/C,,/A,,/A,,/ C,/A,/C,/A,,/!ped-up! | %45
!ped! !>!=A,,,/^C,,/=A,,/A,,/ ^C,/=A,/C,/A,,/!ped-up!!ped! !>!_B,,,/C,,/_B,,/C,,/!ped-up!!ped! !>!=B,,,/D,,/=B,,/D,,/!ped-up! | %46
!ff!!ped! !>!=C,,/G,,/=C,/C,/ G,/C/C/[I:staff -1]G/ !>!c/G/[I:staff +1]C/C/ G,/C,/C,/G,,/!ped-up! | %47
!ped! !>!C,,/F,,/C,/C,/ F,/C/C/[I:staff -1]F/ !>!c/F/[I:staff +1]C/C/ F,/C,/C,/F,,/!ped-up! | %48
!ped! !>!C,,/A,,/C,/C,/ A,/C/C/[I:staff -1]A/ !>!c/A/[I:staff +1]C/C/ A,/C,/C,/A,,/!ped-up! | %49
!ped! !>!C,,/G,,/C,/C,/ G,/C/C/[I:staff -1]G/ !>!c/G/[I:staff +1]C/C/ G,/C,/C,/G,,/!ped-up! | %50
!ped! !>!C,,/F,,/C,/C,/ F,/C/C/[I:staff -1]F/ !>!c/F/[I:staff +1]C/C/ F,/C,/C,/F,,/!ped-up! | %51
!ped! !>!C,,/F,,/=B,,/C,/ F,/=B,/C/[I:staff -1]F/ !>!=B/F/[I:staff +1]C/B,/ F,/C,/B,,/F,,/!ped-up! | %52
!ped! !>!C,,/G,,/C,/C,/ G,/C/G,/C,/!ped-up!!ped! G,/C/G,/C,/!ped-up!!ped! G,/C/G,/C,/!ped-up! x9/2 | %53
!ped! G,/=B,/G,/C,/!ped-up!!ped! G,/_B,/G,/C,/!ped-up!!ped! F,/=A,/F,/C,/!ped-up!!ped! F,/_A,/F,/C,/!ped-up! x/ | %54
!ped! !>!C,,/G,,/C,/C,/ G,/C/C/[I:staff -1]G/ !>!c/G/[I:staff +1]C/C/ G,/C,/C,/G,,/!ped-up! | %55
!ped! !>!C,,/F,,/C,/C,/ F,/C/C/[I:staff -1]F/ !>!c/F/[I:staff +1]C/C/ F,/C,/C,/F,,/!ped-up! | %56
!ped! !>!C,,/G,,/C,/C,/ G,/C/C/[I:staff -1]G/ !>!c/G/[I:staff +1]C/C/ F,/C,/C,/G,,/-!ped-up! | %57
!ped! !>![_D,,G,,]/A,,/_D,/D,/ A,/_D/D/[I:staff -1]A/ !>!_d/A/[I:staff +1]D/D/ A,/D,/D,/A,,/!ped-up! | %58
!ped! !>!_D,,/A,,/_D,/D,/ A,/_D/D/[I:staff -1]A/ !>!_d/A/[I:staff +1]D/D/ A,/D,/D,/A,,/!ped-up! | %59
!ped! !>!_D,,/G,,/_D,/D,/ G,/_D/D/[I:staff -1]G/ !>!_d/G/[I:staff +1]D/D/ G,/D,/D,/G,,/!ped-up! | %60
!ped! !>!_D,,/A,,/_D,/D,/ A,/_D/D/[I:staff -1]A/ !>!_d/A/[I:staff +1]D/D/ A,/D,/D,/A,,/-!ped-up! | %61
!ped! !>![=D,,A,,]/G,,/=D,/D,/ G,/=D/G,/D,/!ped-up!!ped! !>!D,,/F,,/D,/D,/ F,/D/F,/D,/!ped-up! | %62
!ped! !>!E,,/C,/E,/E,/ C/[I:staff -1]E/E/c/ !>!e/c/E/E/[I:staff +1] C/E,/E,/C,/!ped-up! | %63
!ped! !>!=E,,/C,/=E,/E,/[K:treble] C/=E/E/c/ !>!=e/c/E/E/[K:bass] C/E,/E,/C,/!ped-up! | %64
!ped! F,,/C,/F,/F,/ C/[I:staff -1]F/[I:staff +1]C/F,/!ped-up!!ped! F,,/C,/F,/F,/ C/[I:staff -1]F/[I:staff +1]C/F,/!ped-up! | %65
!ped! F,,/C,/F,/F,/ C/[I:staff -1]F/[I:staff +1]C/F,/!ped-up!!ped! F,,/C,/F,/F,/ C/[I:staff -1]F/[I:staff +1]C/F,/!ped-up! | %66
!ped! !>!G,,/E,/G,/G,/[I:staff -1] E/G/G/e/ !>!g/e/G/G/ E/[I:staff +1]G,/G,/E,/!ped-up! | %67
!ped! !>!G,,/E,/G,/G,/[I:staff -1] E/G/G/e/ !>!g/e/G/G/ E/[I:staff +1]G,/G,/E,/!ped-up! | %68
!ped! !>!G,,/D,/F,/G,/[I:staff -1] D/F/G/d/ !>!f/d/G/F/[I:staff +1] D/G,/F,/D,/!ped-up! | %69
!ped! !>!G,,/D,/F,/G,/[I:staff -1] D/F/G/d/ !>!f/d/G/F/[I:staff +1] D/G,/D,/G,,/!ped-up! | %70
!ped! !>!C,,/G,,/C,/C,/ G,/C/C/[I:staff -1]G/[I:staff +1][K:treble] c/c/g/c'/ g/c/c/G/ | %71
[K:bass] C/C/G,/C,/ !>!C,/G,,/C,,/G,,/!ped-up!!ped! !>!=B,,/G,,/C,,/G,,/!ped-up!!ped! !>!D,/G,,/C,,/G,,/!ped-up! | %72
!ped! !>!C,,/G,,/C,/C,/ G,/C/C/[I:staff -1]G/[I:staff +1][K:treble] c/c/g/c'/ g/c/c/G/ | %73
[K:bass] C/C/G,/C,/ !>!C,/G,,/C,,/G,,/!ped-up!!ped! !>!=B,,/G,,/C,,/G,,/!ped-up!!ped! !>!=A,,/G,,/C,,/G,,/!ped-up! | %74
!ped! C,,/G,,/=B,,/C,/ G,/=B,/C/[I:staff -1]G/[I:staff +1][K:treble] =B/c/g/=b/ g/c/B/G/ | %75
[K:bass] C/=B,/G,/C,/ !>!=B,,/G,,/C,,/G,,/!ped-up!!ped! !>!=A,,/F,,/C,,/F,,/!ped-up!!ped! !>!A,,/F,,/C,,/F,,/!ped-up! | %76
!ped! !>!C,,/_A,,/C,/C,/ A,/C/C/[I:staff -1]A/[I:staff +1][K:treble] c/c/a/c'/ a/c/c/A/ | %77
[K:bass] C/C/A,/C,/ !>!C,/A,,/C,,/A,,/!ped-up!!ped! !>!C,,/A,,/C,/A,,/!ped-up!!ped! !>!C,,/A,,/C,/A,,/!ped-up! | %78
!ped! !>!C,,/A,,/C,/C,/ A,/C/C/[I:staff -1]A/[I:staff +1][K:treble] c/c/a/c'/ a/c/c/A/ | %79
[K:bass] C/C/A,/C,/ !>!C,/A,,/C,,/A,,/!ped-up!!ped! !>!C,,/A,,/C,/A,,/!ped-up!!ped! !>!C,,/A,,/C,/A,,/!ped-up! | %80
!ped! !>!C,,/G,,/C,/G,,/ !>!G,,,/G,,/C,/G,,/ !>!C,,/G,,/C,/G,,/ !>!G,,,/G,,/C,/G,,/ | %81
 !>!C,,/G,,/C,/G,,/ !>!G,,,/G,,/C,/G,,/ !>!C,,/G,,/C,/G,,/ !>!G,,,/G,,/C,/G,,/ | %82
 [C,,,C,,]2 z2 !>!!fermata![C,G,C]4!ped-up! |] %83
V:3
 x8 | x8 | x8 | x8 | x8 | x8 | x5/2 c2 B2 (4:3:2A2 x6 | x/ G2 G2 F2 F3/2 | x8 | x8 | x8 | x8 | x8 | %13
 x8 | x4!8va(! x4!8va)! | x2 =E2 x D2 G | x3/2 =E x3/2!8va(! x4!8va)! | x2 =E2 x[I:staff +1] D2 C | %18
 x3/2[I:staff -1] D x3/2!8va(! x4!8va)! | x2 D2 x[I:staff +1] C2 =A, | x8 | x8 | %22
 x4!8va(! x4!8va)! | x2[I:staff -1] C2 x[I:staff +1] B,2[I:staff -1] E | %24
 x3/2[I:staff +1] C x3/2!8va(! x4!8va)! | x2[I:staff -1] C2 x[I:staff +1] B,2 A, | %26
 x3/2[I:staff -1] B, x3/2!8va(! x4!8va)! | x2[I:staff +1] B,2 x A,2 F, | x8 | x8 | x8 | x8 | x8 | %33
 x8 | x8 | x8 | x8 | x8 | x8 | x8 | x8 | x8 | x8 | x8 | x8 | x8 | x8 | x8 | x8 | x8 | x8 | x8 | %52
 x5/2[I:staff -1] c2 _B2 (4:3:2A2 x6 | x/ G2 G2 F2 F2 | x8 | x8 | x8 | x8 | x8 | x8 | x8 | x8 | %62
 x8 | x2!8va(! x4!8va)! x2 | x8 | x8 | x8 | x8 | x8 | x8 | x4!8va(! x4!8va)! | x2 =E2 x D2 G | %72
 x3/2 =E x3/2!8va(! x4!8va)! | x2 =E2 x[I:staff +1] D2 C | x3/2[I:staff -1] D x11/2 | %75
 x2 D2 x[I:staff +1] C2 =A, | x4!8va(! x4!8va)! | x2[I:staff -1] C2 x[I:staff +1] C2 D | %78
 x[I:staff -1] C x2!8va(! x4!8va)! | x2 C2 x[I:staff +1] C2 D | x8 | x8 | x8 |] %83

